X:180
T:Macedonian #3
L:1/8
M:5/8
O:Macedonia
Z:Richard Robinson 
%%TUNEURL: http://www.leeds.ac.uk/music/Info/RRTuneBk/gettune/00000691.html
%%ID:00000691
K:Bb min
g2f2e|g2f2e|g2f2e|g2g3|\
cde2e|e2e3|deg2e|dcB3::
Bcd2c|e2B3|Bcd2c|e2B3|\
Bcd2c|e2B3|cBB3|cBB3:|
